ncols 32
nrows 25
xllcorner 572374.0
yllcorner 4978814.12
cellsize 20.0
NODATA_value -9999.0
0.0000 0.0000 0.0000 0.0000 0.0000 0.0000 0.0000 0.0000 0.0000 0.0000 0.0000 0.0000 0.0000 0.0000 0.0000 0.0000 0.0000 0.0000 0.0000 0.0000 0.0000 0.0000 0.0000 0.0000 0.0000 0.0000 0.0000 0.0000 0.0000 0.0000 0.0000 0.0000
0.0000 0.0000 0.0000 0.0000 0.0000 0.0000 0.0000 0.0000 0.0000 0.0000 0.0000 0.0000 0.0000 0.0000 0.0000 0.0000 0.0000 0.0000 0.0000 0.0000 0.0000 0.0000 0.0000 0.0000 0.0000 0.0000 0.0000 0.0000 0.0000 0.0000 0.0000 0.0000
0.0000 0.0000 0.0000 0.0000 0.0000 0.0000 0.0000 13.2500 13.2500 13.2500 13.2500 13.2500 0.0000 0.0000 0.0000 0.0000 0.0000 0.0000 0.0000 0.0000 0.0000 0.0000 0.0000 0.0000 0.0000 0.0000 0.0000 0.0000 0.0000 13.2500 0.0000 0.0000
0.0000 0.0000 0.0000 0.0000 0.0000 0.0000 0.0000 13.2500 13.2500 0.0000 0.0000 13.2500 13.2500 13.2500 0.0000 0.0000 0.0000 0.0000 0.0000 0.0000 0.0000 13.2500 0.0000 0.0000 0.0000 13.2500 0.0000 0.0000 13.2500 0.0000 0.0000 13.2500
0.0000 0.0000 0.0000 0.0000 13.2500 0.0000 0.0000 0.0000 13.2500 0.0000 0.0000 13.2500 13.2500 0.0000 0.0000 0.0000 0.0000 0.0000 0.0000 0.0000 0.0000 0.0000 0.0000 0.0000 0.0000 13.2500 0.0000 0.0000 0.0000 0.0000 0.0000 0.0000
0.0000 0.0000 13.2500 0.0000 0.0000 0.0000 0.0000 0.0000 0.0000 0.0000 13.2500 13.2500 13.2500 13.2500 0.0000 0.0000 0.0000 0.0000 0.0000 0.0000 0.0000 0.0000 0.0000 0.0000 0.0000 0.0000 0.0000 0.0000 0.0000 0.0000 0.0000 0.0000
0.0000 13.2500 0.0000 0.0000 13.2500 0.0000 0.0000 13.2500 13.2500 13.2500 13.2500 0.0000 13.2500 0.0000 0.0000 0.0000 0.0000 0.0000 0.0000 0.0000 0.0000 0.0000 0.0000 0.0000 0.0000 0.0000 0.0000 0.0000 0.0000 0.0000 0.0000 0.0000
0.0000 0.0000 0.0000 0.0000 0.0000 13.2500 13.2500 0.0000 13.2500 0.0000 13.2500 0.0000 13.2500 13.2500 0.0000 0.0000 0.0000 0.0000 13.2500 0.0000 0.0000 0.0000 0.0000 0.0000 0.0000 0.0000 0.0000 0.0000 0.0000 0.0000 0.0000 0.0000
0.0000 0.0000 0.0000 0.0000 0.0000 13.2500 0.0000 0.0000 13.2500 13.2500 0.0000 0.0000 0.0000 0.0000 0.0000 13.2500 0.0000 13.2500 0.0000 0.0000 0.0000 0.0000 0.0000 0.0000 0.0000 0.0000 0.0000 13.2500 0.0000 0.0000 0.0000 0.0000
0.0000 0.0000 0.0000 0.0000 13.2500 0.0000 0.0000 13.2500 0.0000 0.0000 0.0000 0.0000 0.0000 13.2500 13.2500 13.2500 0.0000 0.0000 0.0000 0.0000 13.2500 0.0000 0.0000 0.0000 0.0000 0.0000 0.0000 0.0000 0.0000 0.0000 0.0000 0.0000
0.0000 13.2500 0.0000 0.0000 13.2500 13.2500 13.2500 0.0000 0.0000 0.0000 13.2500 0.0000 0.0000 0.0000 13.2500 13.2500 13.2500 0.0000 0.0000 0.0000 0.0000 0.0000 13.2500 0.0000 0.0000 0.0000 0.0000 0.0000 0.0000 0.0000 0.0000 0.0000
0.0000 13.2500 0.0000 0.0000 0.0000 0.0000 13.2500 0.0000 0.0000 0.0000 0.0000 0.0000 0.0000 0.0000 0.0000 13.2500 13.2500 0.0000 0.0000 0.0000 0.0000 0.0000 0.0000 0.0000 0.0000 13.2500 13.2500 0.0000 0.0000 0.0000 13.2500 0.0000
0.0000 0.0000 0.0000 0.0000 0.0000 0.0000 0.0000 0.0000 0.0000 0.0000 0.0000 13.2500 0.0000 0.0000 13.2500 13.2500 13.2500 13.2500 0.0000 0.0000 13.2500 13.2500 0.0000 0.0000 0.0000 0.0000 0.0000 0.0000 0.0000 0.0000 0.0000 0.0000
13.2500 0.0000 13.2500 0.0000 13.2500 0.0000 0.0000 13.2500 13.2500 13.2500 0.0000 13.2500 0.0000 0.0000 0.0000 13.2500 13.2500 0.0000 0.0000 0.0000 13.2500 0.0000 0.0000 0.0000 0.0000 0.0000 0.0000 0.0000 0.0000 13.2500 0.0000 0.0000
0.0000 0.0000 0.0000 0.0000 0.0000 0.0000 0.0000 13.2500 13.2500 13.2500 13.2500 0.0000 13.2500 0.0000 13.2500 0.0000 13.2500 0.0000 0.0000 0.0000 13.2500 0.0000 0.0000 0.0000 0.0000 0.0000 0.0000 0.0000 0.0000 0.0000 0.0000 0.0000
13.2500 13.2500 13.2500 13.2500 0.0000 0.0000 0.0000 13.2500 0.0000 13.2500 13.2500 0.0000 0.0000 0.0000 13.2500 0.0000 0.0000 0.0000 0.0000 0.0000 13.2500 13.2500 0.0000 0.0000 0.0000 0.0000 0.0000 0.0000 13.2500 0.0000 0.0000 0.0000
0.0000 0.0000 0.0000 0.0000 0.0000 0.0000 0.0000 13.2500 0.0000 0.0000 13.2500 0.0000 0.0000 0.0000 0.0000 0.0000 13.2500 0.0000 13.2500 0.0000 0.0000 0.0000 0.0000 0.0000 0.0000 0.0000 13.2500 13.2500 0.0000 0.0000 0.0000 0.0000
0.0000 0.0000 0.0000 0.0000 0.0000 0.0000 0.0000 13.2500 13.2500 13.2500 13.2500 0.0000 0.0000 0.0000 0.0000 0.0000 13.2500 0.0000 0.0000 0.0000 0.0000 0.0000 0.0000 0.0000 0.0000 0.0000 0.0000 0.0000 0.0000 0.0000 0.0000 0.0000
0.0000 0.0000 0.0000 0.0000 0.0000 0.0000 0.0000 13.2500 13.2500 0.0000 0.0000 0.0000 13.2500 13.2500 0.0000 0.0000 0.0000 0.0000 0.0000 0.0000 0.0000 0.0000 0.0000 0.0000 0.0000 0.0000 0.0000 0.0000 0.0000 0.0000 0.0000 0.0000
0.0000 0.0000 0.0000 0.0000 0.0000 13.2500 0.0000 13.2500 0.0000 0.0000 0.0000 13.2500 13.2500 0.0000 0.0000 13.2500 0.0000 0.0000 0.0000 0.0000 0.0000 0.0000 0.0000 0.0000 0.0000 0.0000 0.0000 0.0000 0.0000 0.0000 13.2500 0.0000
0.0000 0.0000 0.0000 0.0000 0.0000 0.0000 13.2500 13.2500 13.2500 13.2500 13.2500 0.0000 0.0000 13.2500 13.2500 0.0000 0.0000 0.0000 0.0000 0.0000 0.0000 13.2500 0.0000 0.0000 0.0000 0.0000 13.2500 0.0000 0.0000 0.0000 0.0000 0.0000
13.2500 13.2500 0.0000 0.0000 0.0000 0.0000 13.2500 13.2500 0.0000 13.2500 13.2500 13.2500 13.2500 0.0000 0.0000 0.0000 0.0000 0.0000 13.2500 0.0000 0.0000 0.0000 13.2500 0.0000 0.0000 0.0000 0.0000 0.0000 0.0000 0.0000 0.0000 0.0000
0.0000 13.2500 0.0000 0.0000 13.2500 0.0000 0.0000 0.0000 13.2500 13.2500 13.2500 13.2500 0.0000 13.2500 13.2500 0.0000 0.0000 13.2500 13.2500 13.2500 0.0000 0.0000 0.0000 0.0000 0.0000 13.2500 0.0000 0.0000 0.0000 0.0000 0.0000 0.0000
0.0000 13.2500 0.0000 0.0000 0.0000 0.0000 0.0000 0.0000 0.0000 0.0000 0.0000 0.0000 13.2500 0.0000 13.2500 0.0000 0.0000 0.0000 13.2500 0.0000 13.2500 0.0000 0.0000 0.0000 0.0000 0.0000 0.0000 0.0000 0.0000 0.0000 0.0000 0.0000
0.0000 0.0000 0.0000 0.0000 0.0000 0.0000 0.0000 13.2500 0.0000 0.0000 0.0000 0.0000 0.0000 0.0000 13.2500 13.2500 0.0000 0.0000 13.2500 13.2500 0.0000 0.0000 0.0000 0.0000 0.0000 0.0000 0.0000 0.0000 0.0000 0.0000 0.0000 0.0000
